images/ProcessIcons/Refinement.svg

<svg width="24" height="24" viewBox="0 0 24 24" fill="none" xmlns="http://www.w3.org/2000/svg">
<path d="M11.3284 9.20722L9.20711 11.3285C8.81658 11.7191 8.81658 12.3522 9.20711 12.7428L11.3284 14.8641C11.719 15.2546 12.3521 15.2546 12.7426 14.8641L14.864 12.7428C15.2545 12.3522 15.2545 11.7191 14.864 11.3285L12.7426 9.20722C12.3521 8.81669 11.719 8.81669 11.3284 9.20722Z" stroke="black" stroke-width="2" stroke-linecap="round" stroke-linejoin="round"/>
<path d="M20.06 8C18.5875 5.0365 15.53 3 11.9955 3C8.462 3 5.4725 5.0365 4 8M4 4V8M7.39 8H4M4 16C5.4725 18.9635 8.5305 21 12.0645 21C15.598 21 18.5875 18.9635 20.06 16M20.06 20V16M16.67 16H20.06" stroke="black" stroke-width="2" stroke-linecap="round"/>
</svg>

<svg xmlns="http://www.w3.org/2000/svg" width="24" height="24" fill="none" stroke="#000" stroke-width="2" xmlns:v="https://vecta.io/nano"><path d="M11.328 9.207l-2.121 2.121a1 1 0 0 0 0 1.414l2.121 2.121a1 1 0 0 0 1.414 0l2.121-2.121a1 1 0 0 0 0-1.414l-2.121-2.121a1 1 0 0 0-1.414 0z" stroke-linejoin="round"/><path d="M20.06 8c-1.473-2.963-4.53-5-8.064-5S5.473 5.037 4 8m0-4v4m3.39 0H4m0 8a9 9 0 0 0 8.065 5c3.534 0 6.523-2.037 7.995-5m0 4v-4m-3.39 0h3.39" stroke-linecap="round"/></svg>
